!!!!SEGMENT: pl-wumfc--n66924_szymanowski-karol--glos-w-mroku-op-13-no-1-w-ciemnosciach-cos-sie-skarzy-w-glos.krn
!!!cenid: 19xx:69
!!!COM: Szymanowski, Karol
!!!COM-rismID: pe30106403
!!!CDT: 1882-1937
!!!CNT: Polish
!!!OTL: Głos w mroku Op. 13 No. 1/W ciemnościach coś się skarży w głos
!!!PDT: 1911
!!!AGN: Secular; Song
!!!YEC: Copyright 2022 Narodowy Instytut Fryderyka Chopina (https://polishscores.org)
!!!YEM: License CC-BY-4.0 (https://creativecommons.org/licenses/by/4.0)
!!!SMS-siglum: PL-Wumfc
!!!SMS-shelfmark: N66924
!!!SMS-variant:
!!!SMS-altvar:
!!!SMS-shelfwork: W
!!!NIFC-rismSourceID: 1001177651
!!!NIFC-rismChildID: 1001177651
!!!NIFC-islandoraID: pl-wumfc:9273
!!!URL-pdf-islandora: https://repozytorium.nifc.pl/islandora/object/pl-wumfc%3A8406/datastream/PDF/view
!!!URL-scan: https://polish.musicsources.pl/pl/lokalizacje/galeria/druki-muzyczne/12629/2 @EN{Scan on Polish Music Sources Website} @PL{Skany w portalu Dziedzictwo Muzyki Polskiej w otwartym dostępie}
!!!IIIF:
!!!ONB-nifc:
!!!OMD: Lento mesto.
!!!AIN: 1 piano 1 soprn
!!!key: b
**kern	**kern	**dynam	**kern	**text	**text	**dynam
*part2	*part2	*part2	*part1	*part1	*part1	*part1
*staff3	*staff2	*staff2/3	*staff1	*staff1	*staff1	*
*ICklav	*ICklav	*	*ICvox	*	*	*
*Ipiano	*Ipiano	*	*Isoprn	*	*	*
*I"Piano.	*I"Piano.	*	*I"Canto.	*	*	*
*I'	*I'	*	*I'	*	*	*
*clefF4	*clefG2	*	*clefG2	*	*	*
*k[b-e-a-d-g-]	*k[b-e-a-d-g-]	*	*k[b-e-a-d-g-]	*	*	*
*b:	*b:	*	*b:	*	*	*
*M6/8	*M6/8	*	*M6/8	*	*	*
=1	=1	=1	=1	=1	=1	=1
*	*^	*	*	*	*	*
(8.BBB-/L	(4en 4En/	4.d- 4.B-\	pp <	2.r	.	.	.
16DD-/K	.	.	.	.	.	.	.
8D-/J)	8f 8F/	.	.	.	.	.	.
(8.AAAn/L	4f#X 4F#X/	4.dn 4.An\	.	.	.	.	.
16DDn/K	.	.	.	.	.	.	.
8Dn/J)	16e#XLL 16E#X/	.	.	.	.	.	.
.	16f#JJ 16F#/	.	.	.	.	.	.
=2	=2	=2	=2	=2	=2	=2	=2
*^	*	*	*	*	*	*	*
(8.DDnL 8.DDDn/	8.ryy	4g#X 4G#X/	4.f#X 4.dn\	.	4r	.	.	.
16AAn/K	[8.AA\	.	.	[	.	.	.	.
[8An/J	.	8an 8An/	.	.	8r	.	.	.
!	!	!	!	!LO:DY:rj	!	!	!	!
8.A]L 8.AA/])	8.ryy	4.b-X 4.fn 4.B-X/)	4.ryy	mp >	4r	.	.	.
!	!	!LO:TX:b:i:t=riten.	!	!	!	!	!	!
16AA-X/K	(8.AA-\	.	.	.	.	.	.	.
8A-X/J)	.	.	.	]]	8f/	Es	W ciem-	pp <
*v	*v	*	*	*	*	*	*	*
=3	=3	=3	=3	=3	=3	=3	=3
!LO:ACC:paren	!	!	!	!	!	!	!
(8.EE-X/L	(4an 4An/	4.g-X 4.e-X\	pp <	4g-/	klagt	-no-	.
!LO:ACC:paren	!	!	!	!	!	!	!
16GG-X/K	.	.	.	.	.	.	.
!LO:ACC:paren	!	!	!	!	!	!	!
8G-X/J)	8b- 8B-/	.	.	8g-/	im	-ściach	.
(8.DDn/L	4bn 4Bn/	4.gn 4.dn\	.	(4gn/	Dun-	coś	.
16GGn/K	.	.	.	.	.	.	.
8Gn/J)	16a#XLL 16A#X/	.	[	[8ddn\	.	.	[
.	16bJJ 16B/	.	.	.	.	.	.
!!LO:LB:g=original
=4	=4	=4	=4	=4	=4	=4	=4
!	!	!	!LO:HP:t=poco cresc.	!	!	!	!
(8.GGnL 8.GGGn/	4cc#X 4c#X/	4.bn 4.gn\	<	4dd\)]	.	.	<
16BBn/K	.	.	.	.	.	.	.
8Bn/J)	8ddn 8dn/	.	.	8ddn\	-keln	się	[
(8.GG-XL 8.GGG-X/	4.ee-X 4.b-X 4.e-X/)	4.ryy	>	4ee-\	ir-	skar-	>
16BB-X/K	.	.	.	.	.	.	.
!	!	!	!	!LO:ACC:paren	!	!	!
8B-X/J)	.	.	]]	8b-X\	-gend-	-ży	.
=5	=5	=5	=5	=5	=5	=5	=5
(8.FFL 8.FFF^/	(4gg-X 4g-X^/	4.ee-X 4.an\	<	[4.an/	-wo.	w głos.	.
16C/K	.	.	.	.	.	.	.
8c/J)	8ff 8f/	.	.	.	.	.	.
!	!LO:TX:a:i:t=ten.	!	!	!	!	!	!
!	!LO:TX:b:i:t=rit.	!	!	!	!	!	!
(8.GG-L 8.GGG-/	[4.ee- [<4.e-^</	4cc-X\	[	8a/]	.	.	]
.	.	.	.	4r	.	.	.
16C-X/K	.	.	>	.	.	.	.
8c-X/J	.	8b-\	.	.	.	.	.
=6	=6	=6	=6	=6	=6	=6	=6
8.G-/L)	4.ee-] 4.e-/])	4.an\	.	4r	.	.	.
(<16GGG-/K	.	.	.	.	.	.	.
[8GG-/J	.	.	]	8r	.	.	.
!	!LO:TX:a:i:t=ten.	!	!	!	!	!	!
8.GG-\L])	(>[4.ee- 4.a-X [4.e-/	4.ryy	.	4r	.	.	.
(16Cn\K	.	.	.	.	.	.	.
8cn\J)	.	.	.	8cc\	Ich	Ja	.
*	*v	*v	*	*	*	*	*
!!LO:LB:g=original
=7	=7	=7	=7	=7	=7	=7
!LO:TX:a:i:t=rit.	!	!	!LO:TUP:a:problem=klamra łukowa  	!	!	!
(8.GGnL 8.GGGn/	4.ee-] 4.gn 4.e-/]	>	16%3cc\	mö-	nie	.
16C/K	.	.	16%3gn/	-chte	wiem	>
8c/J)	.	.	.	.	.	.
!	!LO:TX:a:i:t=ten.	!	!	!	!	!
(8.AA-L 8.AAA-/	4.ee- 4.g-X 4.e-/	.	[4e-/	wis-	skąd	.
16C/K	.	.	.	.	.	.
8c/J)	.	]	8e-/]	-sen	.	]]
=8	=8	=8	=8	=8	=8	=8
*M3/8	*M3/8	*	*M3/8	*	*	*
!	!	!	!LO:TUP:a:problem=klamra łukowa  	!	!	!
(8.AAnL 8.AAAn/	4.f 4.c 4.F/)	>]	16%3r	.	.	.
!LO:ACC:paren	!	!	!	!	!	!
16E-X/K	.	.	16%3f/	was	i	<
!LO:ACC:paren	!	!	!	!	!	!
8c-X/J)	.	.	.	.	.	.
=9	=9	=9	=9	=9	=9	=9
*M6/8	*M6/8	*	*M6/8	*	*	*
*	*^	*	*^	*	*	*
!LO:TX:b:i:t=ten.	!	!	!	!LO:TUP:a:problem=klamra łukowa  	!	!	!	!
4.BB- 4.DD- 4.BBB-~>/	(4en 4En^/	4.d- 4.B-\	pp <	16%3r	16%3en\	.	czyj	.
.	.	.	.	16%3f/	16%3f\	es	to	[
.	8f 8F/	.	.	.	.	.	.	.
(8.AAAn/L	4f#X 4F#X/	4.dn 4.An\	.	4.an/	4.a\	ist.	głos.	>
16DDn/K	.	.	.	.	.	.	.	.
8Dn/J)	16e#XLL 16E#X/	.	.	.	.	.	.	.
.	16f#JJ 16F#/	.	.	.	.	.	.	]]
*	*	*	*	*v	*v	*	*	*
=10	=10	=10	=10	=10	=10	=10	=10
4.DDn 4.DDDn/	4g#X 4G#X/	4.f#X 4.dn\	[	2.r	.	.	.
.	8an 8An/	.	>	.	.	.	.
!	!LO:TX:b:i:t=rall.	!	!	!	!	!	!
8.DD-XL 8.DDD-X/	4b-X 4fn 4B-X/)	4.ryy	.	.	.	.	.
!LO:ACC:paren	!	!	!	!	!	!	!
16BB-X/K	.	.	]	.	.	.	.
!LO:ACC:paren	!	!	!	!	!	!	!
8B-X/J	(8gg#X 8g#X\	.	.	.	.	.	.
!!LO:PB:g=original
=11||	=11||	=11||	=11||	=11||	=11||	=11||	=11||
*k[]	*k[]	*	*	*k[]	*	*	*
*	*	*	*	*^	*	*	*
!LO:ACC:n=4:paren	!	!	!	!	!	!	!	!
!LO:ACC:n=1:paren	!LO:ACC:n=2:paren	!	!	!	!LO:ACC:paren	!	!	!
(4.dn 4.G#X 4.F#X 4.BBn\	4ff#X 4ddn^/	4.f#X\	pp <	4r	[4ddn^\	.	Wiatr	.
!	!	!	!	!LO:ACC:paren	!	!	!	!
.	16ee#XLL 16cc#X/	.	.	8ddnX\]	2ryy	Der	.	.
.	16eenJJ 16ccn/	.	.	.	.	.	.	.
4.en 4.B-X 4.Cn^\)	4.dd 4.a#X^/)	4.f#\	[	(4dd^\	.	Wind	prze-	.
.	.	.	.	8f#X/)	.	.	-ciw	.
*	*	*	*	*v	*v	*	*	*
=12	=12	=12	=12	=12	=12	=12	=12
!LO:ACC:n=4:paren	!	!	!	!	!	!	!
!LO:ACC:n=1:paren	!	!	!	!	!	!	!
(4.dn 4.G#X 4.F#X 4.BBn\	(4ff#X 4dd^/	4.f#X\	<	[8d~>/	klagt	no-	<
.	.	.	.	8.d~>/]	wohl	.	.
.	16ee#XLL 16cc#X/	.	.	.	.	.	.
!	!	!	!	!LO:ACC:paren	!	!	!
.	16eenJJ 16ccn/	.	.	16en/	die	-cy	.
4.e 4.B-X 4.Cn^\)	4.dd 4.a#X^/)	4.f#\	[	(4f#X^>/	Nacht	wzniósł	.
.	.	.	.	8g#X/)	.	.	[
=13	=13	=13	=13	=13	=13	=13	=13
!	!	!	!LO:DY:rj	!	!	!	!
(4.An 4.D#X 4.C#X 4.FF#X/	(4cc#X 4an^/	4.c#X\	pp <	4a/	an.	szum;	.
.	16ccnLL 16a-X/	.	.	8a/	Der	Lecz	.
.	16bnJJ 16gn/	.	.	.	.	.	.
4.Bn 4.Fn 4.GGn^\)	4.an 4.fn^/)	4.c#\	[	(4cc#X^\	Wind	gdzieś	>
!	!	!	!	!LO:ACC:paren	!	!	!
.	.	.	.	8bn\)	.	da-	]
!!LO:LB:g=original
=14	=14	=14	=14	=14	=14	=14	=14
(4.A 4.D#X 4.C#X 4.FF#X/	(4cc#X 4a^/	4.c#X\	.	4a/	klagt	-le-	.
.	16ccnLL 16a-X/	.	.	[16a/	a-	-ko	.
.	16bnJJ 16gn/	.	.	16a/]	-ber	.	.
4.Bn 4.Fn 4.GGn^\)	4.an 4.fn^/)	4.c#\	.	4cc#X^\	nicht	szem-	>
.	.	.	.	8b\	so	-rze	]]
=15	=15	=15	=15	=15	=15	=15	=15
*^	*	*	*	*	*	*	*
4.B-- 4.E-X 4.D-X 4.GG-X\	4.ryy	(4dd-X 4b--/	4.d-X\	<	4a/	nah.	wiatr;	.
.	.	16ccnLL 16a-X/	.	.	8r	.	.	.
.	.	16cc-XJJ 16gn/	.	[	.	.	.	.
!	!	!LO:TX:b:i:t=rit.	!	!	!	!	!	!
(<4Gn/	4.D-X 4.EE-X\	(4.b-X 4.g/)	(>4e-X^\	.	4r	.	.	.
16F#X/LL	.	.	16dn\LL	.	8b-X\	Der	Po	.
16G/JJ)	.	.	16d-X\JJ)	.	.	.	.	.
=16	=16	=16	=16	=16	=16	=16	=16	=16
4.G-X 4.C 4.BB-X 4.EE-X/	4.ryy	(4b-X 4g-X/)	4.c\	<	(4b-X\	Wind	no-	<
!LO:TX:a:i:t=riten.	!	!	!	!	!	!	!	!
.	.	16aLL 16f/	.	.	8bn\)	.	-cy	.
.	.	16a-XJJ 16f-X/)	.	.	.	.	.	.
!	!	!	!	!	!LO:TUP:a:problem=klamra łukowa	!	!	!
(<4En/	4.BB-X 4.CCn\	4.gn 4.en/	(>4c\	[	16%3cc\	klagt	za-	[
.	.	.	.	.	[32%3g/	im-	-wsze	.
16D#X/LL	.	.	16B\LL	.	.	.	.	.
.	.	.	.	.	32%3g/]	-mer	.	.
16E/JJ)	.	.	16B-X\JJ)	.	.	.	.	.
!!LO:LB:g=original
=17	=17	=17	=17	=17	=17	=17	=17	=17
(8.BBBn/L	4.ryy	(4en/	4.dn 4.A-X\	<	4g/	in	ję-	>
16BBn/K	.	.	.	.	.	.	.	.
8Dn/J)	.	8f/	.	.	8f/	der	-czy	.
!	!	!	!LO:S:s=1:note:problem=note-level slur	!	!	!	!	!
(<4F-X^:/	4.BB-X: 4.BBB-X:\	4.a-X 4.A-X^/)	(>4d-X\	[	4.a-X/	Nacht;	wiatr;	]
.	.	.	.	>	.	.	.	.
16E-X/LL	.	.	16c\LL	.	.	.	.	.
16F-/JJ)	.	.	16d-\JJ)	]	.	.	.	.
=18	=18	=18	=18	=18	=18	=18	=18	=18
(8.BBBn/L	4.ryy	(4en/	4.dn 4.A-X\	<	2.r	.	.	.
16BBn/K	.	.	.	.	.	.	.	.
8Dn/J)	.	8f/	.	[	.	.	.	.
!LO:TX:a:i:t=rit.	!	!	!LO:S:s=1:note:problem=note-level slur	!	!	!	!	!
(<4F-X^:/	4.BB-X: 4.BBB-X:\	4.a-X 4.A-X^/)	(>4d-X\	.	.	.	.	.
16E-X/LL	.	.	16c\LL	.	.	.	.	.
16F-/JJ)	.	.	16d-\JJ)	.	.	.	.	.
*v	*v	*	*	*	*	*	*	*
=19	=19	=19	=19	=19	=19	=19	=19
!	!LO:TX:a:i:t=Avvivando.	!	!	!	!	!	!
(8.BBB-X/L	(4en 4En/	4.d-X 4.B-X\	pp <	4r	.	.	.
16DD-X/K	.	.	.	.	.	.	.
8D-X/J)	8f 8F/	.	.	8r	.	.	.
4.AAn 4.DDn 4.AAAn/	4.f#X/)	(>4dn 4F#X\	.	4r	.	.	.
!	!	!	!	!LO:ACC:paren	!	!	!
.	.	16c#XLL 16E#X\	[	8ddn\	In	W mych	.
.	.	16dJJ 16F#\)	.	.	.	.	.
!!LO:LB:g=original
=20	=20	=20	=20	=20	=20	=20	=20
*	*	*	*	*	*	*	*^
(8.BBB-X/L	(4en 4En/	4.d-X 4.B-X\	p	4en/	mei-	u-	p <	.
16DD-X/K	.	.	.	.	.	.	.	.
!	!	!	!LO:HP:t=molto cresc.	!	!	!	!	!
8D-X/J)	8f 8F/	.	<	8f/	-nen	-szach	.	.
!	!	!	!	!	!	!	!	!LO:HP:a
4.AAn 4.DDn 4.AAAn/	4f#X 4F#X/	4.dn 4.An\	.	4f#X/	Oh-	tak	.	<
.	16e#XLL 16E#X/	.	.	8a/	-ren	się	[	.
.	16f#JJ 16F#/	.	.	.	.	.	.	.
*	*	*	*	*	*	*	*v	*v
=21	=21	=21	=21	=21	=21	=21	=21
*^	*	*	*	*	*	*	*
(8.DDnL 8.DDDn/	8.ryy	4g#X 4G#X/	4.f#X 4.dn\	f	4dd\	klagt	skar-	f
16AAn/K	[8.AA\	.	.	.	.	.	.	.
[8An/J	.	8an 8An/)	.	.	8dd\	mein	-ży	.
!	!	!LO:TX:b:i:t=rit.	!	!	!	!	!	!
8.A]L 8.AA/])	8.ryy	4.b-X 4.fn 4.B-X/	4.ryy	.	4.ffn^\	Blut,	Krew,	.
16AA-X/K	(8.AA-\	.	.	.	.	.	.	.
8A-X/J)	.	.	.	.	.	.	.	.
=22	=22	=22	=22	=22	=22	=22	=22	=22
*	*	*	*	*	*^	*	*	*
!	!	!	!	!LO:DY:t=sub. %s	!	!	!	!	!
(8.DDn/L	8.ryy	(4g#X 4G#X/	4.f#X 4.dn\	pp	4r	8d\	.	tak,	.
.	.	.	.	.	.	8r	.	.	.
16AAn/K	[8.AA\	.	.	.	.	.	.	.	.
[8An/J	.	8an 8An/	.	.	8d/	2ryy	mein	to	pp
!	!	!	!	!	!LO:TUP:a:problem=klamra łukowa	!	!	!	!
8.A]L 8.AA/])	8.ryy	4.b-X 4.fn 4.B-X/)	4.ryy	.	[16%3fn/	.	Blut	krew.	.
!LO:TX:a:i:t=rit.	!	!	!	!	!	!	!	!	!
16AA-X/K	(8.AA-\	.	.	.	16%3f/]	.	wohl.	.	.
8A-X/J)	.	.	.	.	.	.	.	.	.
*v	*v	*	*	*	*v	*v	*	*	*
!!LO:PB:g=original
=23	=23	=23	=23	=23	=23	=23	=23
!	!	!	!LO:DY:rj	!	!	!	!
!	!LO:TX:a:i:t=Avvivando.	!	!LO:HP:t=molto cresc.	!	!	!	!
(8.EE-X/L	(4an 4An/	4.g-X 4.e-X\	p <	4r	.	.	.
16GG-X/K	.	.	.	.	.	.	.
8G-X/J)	8b-X 8B-X/	.	.	8r	.	.	.
(8.DDn/L	4bn 4Bn/	4.gn 4.dn\	.	4r	.	.	.
16GGn/K	.	.	.	.	.	.	.
8Gn/J)	16a#XLL 16A#X/	.	.	8dn/	Mein	Lecz	.
.	16bJJ 16B/	.	.	.	.	.	.
=24	=24	=24	=24	=24	=24	=24	=24
*	*	*	*	*^	*	*	*
!	!	!	!	!LO:TUP:a:problem=klamra łukowa	!	!	!	!
(8.GGnL 8.GGGn/	4cc#X 4c#X/	4.bn 4.gn\	<	16%3cc#X\	4.ryy	Blut	Krew	.
16BBn/K	.	.	.	16%3dd\	.	klingt	nie	<
8Bn/J)	8dd 8d/	.	.	.	.	.	.	.
(8.GG-XL 8.GGG-X/	4.ee-X 4.b-X 4.e-X/)	4.ryy	[	4ee-X/	8.ee-\	a-	Ża-	.
16BB-X/K	.	.	.	.	16ee-\	.	-li	.
8B-X/J)	.	.	.	8b/	8b\	-ber	się	[
*	*	*	*	*v	*v	*	*	*
=25	=25	=25	=25	=25	=25	=25	=25
*M9/8	*M9/8	*	*	*M9/8	*	*	*
!	!	!	!	!	!	!	!LO:DY:rj
(8.FFL 8.FFF/	(4gg-X 4g-X/	4.ee-X 4.an\	f	(<4gg-X\	nicht	tak	f
16C/K	.	.	>	.	.	.	.
8c/J)	8ff 8f/	.	.	8ff\)	so	.	.
!	!LO:TX:a:i:t=ten.	!LO:S:s=1:note:problem=note-level slur 	!	!	!	!	!
(<8.GG-XL 8.GGG-X/	[4.ee-X [<4.e-X^^/	(>4cc-X\	.	[4.ee-X\	fremd.	w głos;	.
16C-X/K	.	.	.	.	.	.	.
[>8c-X/J	.	8b-X\	.	.	.	.	.
!LO:TX:a:i:t=riten.	!	!	!	!	!	!	!
8.c-\L])	4.ee-] 4.e-/])	4an\)	]	4ee-\]	.	.	.
(16Cn\K	.	.	.	.	.	.	.
8cn\J)	.	8ryy	.	8r	.	.	.
!!LO:LB:g=original
=26	=26	=26	=26	=26	=26	=26	=26
*M6/8	*M6/8	*	*	*M6/8	*	*	*
!	!	!	!	!LO:TX:a:i:t=molto espress.	!	!	!
(2.An 2.D#X 2.C#X 2.FF#X/	([4.cc#X [4.an^/	2.c#X\	pp	4r	.	.	.
!	!	!	!	!	!	!	!LO:DY:rj
.	.	.	.	8r	.	.	pp
.	8cc#]L 8a/]	.	<	4.an/	Mein	Ma	<
.	8b#X 8g#X/	.	.	.	.	.	.
.	8bnJ 8gn/	.	[[	.	.	.	.
=27	=27	=27	=27	=27	=27	=27	=27
!	!LO:TX:b:i:t=ten.	!	!	!	!	!	!
2.Bn 2.Fn 2.GGn\)	2.an 2.fn/)	2.c#X\	.	[4.cc#X^\	Blut	krew	.
!	!	!	!	!LO:TUP:a:problem=klamra łukowa	!	!	!
.	.	.	.	16%3cc#\]	.	.	[
!	!	!	!	!LO:ACC:paren	!	!	!
.	.	.	.	16%3bn\	ist	tak	.
=28	=28	=28	=28	=28	=28	=28	=28
2.A 2.D#X 2.C#X 2.FF#X/	([4.cc#X [4.a^/	2.c#X\	<	4.a/	ru-	ci-	.
.	8cc#]L 8a/]	.	.	4a/	-hig,	-chą	.
.	8b#X 8g#X/	.	.	.	.	.	.
.	8bnJ 8gn/	.	[[	8r	.	.	.
=29	=29	=29	=29	=29	=29	=29	=29
*^	*	*	*	*^	*	*	*
!LO:ACC:paren	!	!	!LO:TX:b:i:t=ten.	!	!	!	!	!	!
([4.Gn/	2.D-X 2.EE-X\	2.b-X 2.gn/)	([4.e-X\	>	4r	[2.b-X\	.	jest	.
.	.	.	.	.	8r	.	.	.	.
8G/L]	.	.	8e-\L]	]	[4.b-X/	.	wie	.	pp <
8F#X/	.	.	8d\	.	.	.	.	.	.
8G/J)	.	.	8d-X\J)	.	.	.	.	.	.
*v	*v	*	*	*	*	*	*	*	*
!!LO:LB:g=original
=30	=30	=30	=30	=30	=30	=30	=30	=30
!	!	!	!	!LO:TX:t=P:problem=w źródle wspólne zakończenie ligatury na jednej nucie	!	!	!	!
2.G-X 2.Cn 2.BB-X 2.EE-X/	([4.b-X [4.g-X/	2.c\	<	4.b-\]	4.b-\]	.	.	.
!	!LO:TX:a:i:t=rallent.	!	!	!	!	!	!	!
.	8b-]L 8g-/]	.	.	4.bn\	4.ryy	die	jak	.
.	8an 8fn/	.	.	.	.	.	.	.
.	8a-XJ 8f-X/	.	[[	.	.	.	.	[[
*	*	*	*	*v	*v	*	*	*
=31	=31	=31	=31	=31	=31	=31	=31
*^	*	*	*	*	*	*	*
([4.En/	2.BB-X 2.CCn\	2.gn 2.en/)	([4.cn\	.	(4.cc\	Nacht.	noc.	>
!	!	!	!	!	!LO:TUP:a:problem=klamra łukowa	!	!	!
8E/L]	.	.	8c\L]	.	16%3g/)	.	.	]
8D#X/	.	.	8B\	.	.	.	.	.
.	.	.	.	.	16%3g/	Ich	Za-	.
8E/J)	.	.	8B-X\J)	.	.	.	.	.
=32	=32	=32	=32	=32	=32	=32	=32	=32
!	!	!LO:TX:a:i:t=a tempo	!	!	!	!	!	!LO:DY:rj
(8.BBBn/L	4.ryy	(4en/	4.dn 4.A-X\	pp <	(>4g^>/	glaub,	-pew-	p
16BBn/K	.	.	.	.	.	.	.	.
8Dn/J)	.	8f/	.	.	8f/)	.	-ne,	.
!	!	!	!LO:S:s=1:note:problem=note-level slur	!	!LO:TUP:a:problem=klamra łukowa	!	!	!
(<4F-X:/	4.BB-X: 4.BBB-X:\	4.a-X 4.A-X^/)	(>4d-X\	[	16%3r	.	.	.
.	.	.	.	.	16%3a-X/	ein	to	.
16E-X/LL	.	.	16c\LL	.	.	.	.	.
16F-/JJ)	.	.	16d-\JJ)	.	.	.	.	.
=33	=33	=33	=33	=33	=33	=33	=33	=33
(8.BBBn/L	4.ryy	(4en/	4.dn 4.A-X\	<	(4g^>/	Herz	ser-	.
16BBn/K	.	.	.	.	.	.	.	.
8Dn/J)	.	8f/	.	.	8f/)	.	-ce	.
!	!	!	!LO:S:s=1:note:problem=note-level slur	!	!	!	!	!
(<4F-X:/	4.BB-X: 4.BBB-X:\	4.a-X 4.A-X/)	(>4d-X\	[	4.a-X~>/	klagt	łka	.
16E-X/LL	.	.	16c\LL	.	.	.	.	.
16F-/JJ)	.	.	16d-\JJ)	.	.	.	.	.
*v	*v	*	*	*	*	*	*	*
!!LO:LB:g=original
=34	=34	=34	=34	=34	=34	=34	=34
*	*	*	*	*^	*	*	*
(8.BBB-X/L	(4en/	4.d-X 4.B-X 4.Fn\	<	4r	4.ryy	.	.	.
16DD-X/K	.	.	.	.	.	.	.	.
8D-X/J)	8f/	.	.	8r	.	.	.	.
*	*	*	*	*	*Xtuplet	*	*	*
!LO:TX:b:i:t=ten.	!LO:TX:a:i:t=ten.	!	!	!LO:TUP:a:problem=klamra łukowa	!	!	!	!
4.AAn 4.DDn 4.AAAn/	4.f#X/)	(>4dn 4F#X\	.	16%3f#X/	16%3ryy	ir-	.	.
.	.	.	.	16%3f#/	16%3f#\	-gend-	tak	.
!	!LO:TX:b:i:t=rit.	!	!	!	!	!	!	!
.	.	16c#XLL 16E#X\	[	.	.	.	.	.
.	.	16dJJ 16F#\)	.	.	.	.	.	.
*	*	*	*	*v	*v	*	*	*
=35	=35	=35	=35	=35	=35	=35	=35
(8.BBB-X/L	(4en/	4.d-X 4.B-X 4.Fn\	<	4.fn~>/	-wo.	w głos.	.
16DD-X/K	.	.	.	.	.	.	.
8D-X/J)	8fn/	.	.	.	.	.	.
!LO:TX:b:i:t=ten.	!LO:TX:a:i:t=ten.	!	!	!	!	!	!
4.AAn 4.DDn 4.AAAn/	4.f#X/)	(>4dn 4F#X\	.	4r	.	.	.
!	!LO:TX:b:i:t=rit.	!	!	!	!	!	!
.	.	16c#XLL 16E#X\	[	8r	.	.	.
.	.	16dJJ 16F#\)	.	.	.	.	.
*	*v	*v	*	*	*	*	*
=36	=36	=36	=36	=36	=36	=36
2.BB-X 2.DD-X 2.BBB-X~>/	2.fn 2.d-X 2.Fn~>/	ppp	2.r	.	.	.
=37	=37	=37	=37	=37	=37	=37
2.BB-X 2.DD-X 2.BBB-X~>;/	2.f 2.d-X 2.F~>;/	.	2.r;	.	.	.
!LO:TX:b:t=1906.	!	!	!	!	!	!
==	==	==	==	==	==	==
*-	*-	*-	*-	*-	*-	*-
!!!system-decoration: <vox>{(klav)}
!!!RDF**kern: > = above
!!!RDF**kern: < = below
!!!ENC: Anastazja Marusiak
!!!END: 2023-10-17
!!!EED: Andrzej Kubiczek
!!!EEV: 2023-10-25
